X:224
M:C|
L:1/8
K:E_
g|e2ge B<B ge|f>agf eccf|e2ge Bagf|ecBG E/E/E Eg|e2ge B<B ge|
fagf eccf|e2 ge fdeB|c<e B>G E/E/E E||c|BEGB c2 ce|BcGB cFFc|
geBG E/E/E E||

